X:1
T:Title
%%score { ( 1 4 ) | ( 2 3 ) }
L:1/8
Q:1/4=82
M:2/4
K:Eb
V:1 bass nm="Grand Piano"
V:4 bass 
V:2 bass 
V:3 bass 
V:1
 C,2[K:treble] [G,EG][G,EG] | [F,F][E,E][K:treble] [G,G][G,G] | G,2 [A,A][A,A] | %3
w: ?????~???? * *|||
 [B,DB]A/B/ [FA][G,EG] | C,2[K:treble] [G,EG][G,EG] | [F,F][E,E][K:treble] [G,G][G,G] | %6
w: |||
 G,2 [A,A][A,A] | [B,DB]A/B/ [FA][G,EG] | z/ GG/ [Ec]B | AG BA | GF AG | FE [Ec][Ec] | %12
w: ||||||
 [Ec]B/A/ BA/G/ | AG F2 | BA/G/ AG/F/ | GF E2 | [Ec]B/A/ BA/G/ | AG F2 | BA/G/ AG/F/ | GF E2 | %20
w: ||||||||
 ED/C/ DE | [F,CF]G AB | [Ec]B/A/ GF | [CE][=B,D] [G,C]2 |] %24
w: ||||
V:2
 z/ CE/ C,C, | C,C, C,C, | z/[K:treble] DF/[K:bass] F,F, | B,,A,/B,/ F,C, | z/ CE/ C,C, | %5
 C,C, C,C, | z/[K:treble] DF/[K:bass] F,F, | B,,A,/B,/ F,C, | z/ EE/ z[K:treble] E | %9
 [A,CF][G,C] [B,F][A,F] | [C,G,C][F,C] [A,C][G,C] | [F,C][E,C] [C,G,][C,G,] | [C,G,]2 .[F,B,D]2 | %13
 [F,A,C]2 [F,A,C]2 | [B,,B,]2 [F,A,C]2 | CC [C,C]2 | [C,G,]2 .[F,B,D]2 | [F,A,C]2 [F,A,C]2 | %18
 [B,,B,]2 [F,A,C]2 | CC [C,C]2 | .[C,G,C]2 .[G,,F,]2 | A,,[K:treble]C [F,F][A,F] | %22
 [C,C]2 [C,C][G,D] | [G,,G,][G,,F,] [C,,C,]2 |] %24
V:3
 C,,2 z2 | x4 | G,,2[K:treble][K:bass] z2 | x4 | C,,2 z2 | x4 | G,,2[K:treble][K:bass] z2 | x4 | %8
 C,2 [C,G,]2[K:treble] | x4 | x4 | x4 | x4 | x4 | x4 | C,2 z2 | x4 | x4 | x4 | C,2 z2 | x4 | %21
 x[K:treble] x3 | x4 | x4 |] %24
V:4
 x2[K:treble] x2 | x2[K:treble] x2 | x4 | x4 | x2[K:treble] x2 | x2[K:treble] x2 | x4 | x4 | x4 | %9
 x4 | x4 | x4 | x4 | x4 | D2 z2 | x4 | x4 | x4 | D2 z2 | x4 | x4 | x4 | x4 | x4 |] %24

